<?xml version="1.0" encoding="UTF-8"?>
<map version="1.10" tiledversion="1.12.2" orientation="orthogonal" renderorder="right-down" width="30" height="30" tilewidth="34" tileheight="24" infinite="0" nextlayerid="13" nextobjectid="10">
 <tileset firstgid="1" source="glass.tsx"/>
 <tileset firstgid="81" source="Tiles/water.tsx"/>
 <layer id="1" name="图块层 1" width="30" height="30">
  <data encoding="csv">
13,22,21,14,22,22,21,29,29,13,29,21,22,22,14,13,21,21,22,14,29,14,21,13,29,22,14,14,14,21,
21,13,22,14,14,21,29,13,29,14,14,13,13,14,13,13,29,14,13,14,14,22,21,13,21,29,14,21,14,22,
22,21,21,14,21,21,13,13,21,13,22,13,14,13,21,14,22,21,14,13,22,13,22,22,14,29,14,29,22,22,
13,13,29,21,13,29,22,29,29,21,22,14,14,13,13,14,29,29,21,22,14,22,14,14,22,14,21,13,14,13,
21,14,13,21,0,0,0,0,0,0,0,0,0,0,22,21,13,13,14,22,14,21,22,29,14,14,14,14,22,21,
13,29,21,0,81,81,81,81,81,81,81,81,81,81,0,22,29,13,21,21,21,22,14,22,14,13,13,22,14,13,
14,14,13,81,81,81,81,81,81,81,81,81,81,81,81,21,14,22,21,21,21,21,14,29,14,21,13,29,22,29,
14,14,21,81,81,81,81,81,81,81,81,81,81,81,81,0,0,22,14,22,13,14,14,21,29,13,13,13,22,22,
14,21,22,81,81,81,81,21,29,29,21,29,81,81,81,81,81,14,22,21,13,13,14,13,14,29,22,13,22,21,
29,29,22,81,81,81,29,21,13,22,29,21,29,81,81,81,81,22,13,14,21,14,22,13,22,29,22,22,29,22,
14,21,29,81,81,81,29,13,21,22,22,14,21,14,81,81,81,13,29,29,22,22,14,13,29,14,13,21,22,29,
29,29,13,29,81,81,21,22,14,13,14,14,22,22,81,81,81,22,21,13,14,29,14,21,22,14,14,21,21,13,
13,14,14,13,81,81,81,14,22,13,21,22,29,13,81,81,29,21,21,13,29,21,22,13,14,13,14,14,14,21,
13,13,29,22,81,81,81,21,22,14,29,13,22,13,81,81,13,13,22,21,13,21,21,29,22,22,14,14,14,29,
14,21,29,13,81,81,81,81,13,21,22,81,81,81,81,81,13,21,14,21,14,14,22,14,21,22,14,29,21,13,
21,13,13,29,81,81,81,81,14,14,14,81,81,81,81,81,29,29,21,29,13,21,14,13,21,29,14,14,13,13,
13,29,21,22,21,81,81,81,22,29,14,81,81,81,81,22,13,21,22,29,21,21,22,22,14,22,29,29,21,13,
21,21,22,29,29,14,29,29,22,14,21,81,81,81,81,22,13,13,21,29,21,21,29,29,13,29,13,13,22,29,
14,14,29,22,22,13,22,13,29,22,29,14,14,22,22,13,14,22,22,81,81,81,13,13,22,14,21,13,29,21,
13,21,13,13,21,29,21,21,29,29,14,14,22,21,13,29,29,22,81,81,81,81,29,13,13,14,14,21,22,13,
21,14,21,14,13,29,21,14,21,22,22,22,29,21,14,13,14,13,81,81,81,81,29,14,29,21,22,13,29,29,
13,14,13,13,14,22,22,13,22,14,29,13,22,29,13,29,13,21,81,81,81,81,29,22,29,29,14,29,13,21,
14,21,13,13,14,14,22,29,29,21,21,13,22,21,21,13,29,22,21,29,29,13,21,21,29,22,29,22,21,21,
29,29,13,14,14,21,22,22,29,22,13,29,14,29,14,14,21,14,21,13,22,13,13,13,14,21,14,22,21,14,
13,22,22,21,14,14,29,22,22,13,22,29,14,21,29,14,21,29,21,13,22,14,13,13,21,22,29,22,14,14,
21,14,29,13,14,22,21,21,29,13,21,13,21,21,29,22,22,14,14,22,21,21,29,13,29,13,14,22,29,29,
21,29,13,13,14,13,21,21,21,14,13,14,14,13,14,29,29,22,21,22,22,21,13,13,29,22,14,21,22,13,
29,22,13,13,14,13,22,29,22,29,21,13,29,22,29,22,13,22,29,14,29,22,14,13,14,22,22,21,29,29,
21,29,29,29,21,14,22,13,14,21,13,22,22,14,22,21,22,14,22,21,21,13,21,14,13,13,22,13,29,22,
14,14,22,29,29,21,22,14,14,21,22,21,21,21,29,22,22,22,22,21,29,22,21,29,13,21,13,22,21,13
</data>
 </layer>
 <layer id="5" name="图块层 2" width="30" height="30">
  <data encoding="csv">
0,0,0,0,0,0,0,0,0,0,0,0,0,0,0,0,0,0,0,0,0,0,0,0,0,0,0,0,0,0,
0,0,0,0,0,0,0,0,0,0,0,0,0,0,0,0,0,0,0,0,0,0,0,0,0,0,0,0,0,0,
0,0,0,0,0,0,0,0,0,0,0,0,0,0,0,0,0,0,0,0,0,0,0,0,0,0,0,0,0,0,
0,0,0,0,0,0,0,0,0,0,0,0,0,0,0,0,0,0,0,0,0,0,0,0,0,0,0,0,0,0,
0,0,0,0,27,27,27,27,27,27,27,27,27,27,0,0,0,0,0,0,0,0,0,0,0,0,0,0,0,0,
0,0,0,32,35,35,35,35,35,35,35,35,35,35,31,0,0,0,0,0,0,0,0,0,0,0,0,0,0,0,
0,0,0,40,0,0,0,0,0,0,0,0,0,0,39,0,0,0,0,0,0,0,0,0,0,0,0,0,0,0,
0,0,0,0,0,0,10,11,11,11,11,11,0,0,0,27,31,0,0,0,0,0,0,0,0,0,0,0,0,0,
0,0,0,0,0,10,15,0,0,0,0,0,0,0,0,35,39,0,0,0,0,0,0,0,0,0,0,0,0,0,
0,0,0,0,0,18,0,0,0,0,0,0,0,0,0,0,0,0,0,0,0,0,0,0,0,0,0,0,0,0,
0,0,0,0,0,18,0,0,0,0,0,0,0,0,0,0,0,0,0,0,0,0,0,0,0,0,0,0,0,0,
0,0,0,0,0,18,0,0,0,0,0,0,0,0,0,0,0,0,0,0,0,0,0,0,0,0,0,0,0,0,
0,0,0,0,0,26,31,0,0,0,0,0,0,0,0,0,0,0,0,0,0,0,0,0,0,0,0,0,0,0,
0,0,0,0,0,34,39,0,0,0,0,0,0,32,0,0,0,0,0,0,0,0,0,0,0,0,0,0,0,0,
0,0,0,0,0,0,0,31,0,0,0,32,27,40,0,0,0,0,0,0,0,0,0,0,0,0,0,0,0,0,
0,0,0,0,0,0,0,39,0,0,0,40,35,0,0,0,0,0,0,0,0,0,0,0,0,0,0,0,0,0,
0,0,0,0,0,0,0,0,0,0,0,0,0,0,0,0,0,0,0,0,0,0,0,0,0,0,0,0,0,0,
0,0,0,0,0,0,0,0,0,0,0,0,0,0,0,0,0,0,0,0,0,0,0,0,0,0,0,0,0,0,
0,0,0,0,0,0,0,0,0,0,0,0,0,0,0,0,0,0,0,32,27,31,0,0,0,0,0,0,0,0,
0,0,0,0,0,0,0,0,0,0,0,0,0,0,0,0,0,0,32,40,35,39,0,0,0,0,0,0,0,0,
0,0,0,0,0,0,0,0,0,0,0,0,0,0,0,0,0,0,40,0,0,0,0,0,0,0,0,0,0,0,
0,0,0,0,0,0,0,0,0,0,0,0,0,0,0,0,0,0,0,0,0,0,0,0,0,0,0,0,0,0,
0,0,0,0,0,0,0,0,0,0,0,0,0,0,0,0,0,0,0,0,0,0,0,0,0,0,0,0,0,0,
0,0,0,0,0,0,0,0,0,0,0,0,0,0,0,0,0,0,0,0,0,0,0,0,0,0,0,0,0,0,
0,0,0,0,0,0,0,0,0,0,0,0,0,0,0,0,0,0,0,0,0,0,0,0,0,0,0,0,0,0,
0,0,0,0,0,0,0,0,0,0,0,0,0,0,0,0,0,0,0,0,0,0,0,0,0,0,0,0,0,0,
0,0,0,0,0,0,0,0,0,0,0,0,0,0,0,0,0,0,0,0,0,0,0,0,0,0,0,0,0,0,
0,0,0,0,0,0,0,0,0,0,0,0,0,0,0,0,0,0,0,0,0,0,0,0,0,0,0,0,0,0,
0,0,0,0,0,0,0,0,0,0,0,0,0,0,0,0,0,0,0,0,0,0,0,0,0,0,0,0,0,0,
0,0,0,0,0,0,0,0,0,0,0,0,0,0,0,0,0,0,0,0,0,0,0,0,0,0,0,0,0,0
</data>
 </layer>
 <layer id="6" name="图块层 3" width="30" height="30">
  <data encoding="csv">
0,0,0,0,0,0,0,0,0,0,0,0,0,0,0,0,0,0,0,0,0,0,0,0,0,0,0,0,0,0,
0,0,0,0,0,0,0,0,0,0,0,0,0,0,0,0,0,0,0,0,0,0,0,0,0,0,0,0,0,0,
0,0,0,0,0,0,0,0,0,0,0,0,0,0,0,0,0,0,0,0,0,0,0,0,0,0,0,0,0,0,
0,0,0,0,0,0,0,0,0,0,0,0,0,0,0,0,0,0,0,0,0,0,0,0,0,0,0,0,0,0,
0,0,0,0,24,19,19,19,19,19,19,19,19,23,0,0,0,0,0,0,0,0,0,0,0,0,0,0,0,0,
0,0,0,24,28,0,0,0,0,0,0,0,0,26,23,0,0,0,0,0,0,0,0,0,0,0,0,0,0,0,
0,0,0,20,36,0,0,0,0,0,0,0,0,34,18,0,0,0,0,0,0,0,0,0,0,0,0,0,0,0,
0,0,0,20,0,0,0,0,0,0,0,0,12,0,26,19,23,0,0,0,0,0,0,0,0,0,0,0,0,0,
0,0,0,20,0,0,0,0,0,0,0,0,16,12,34,0,18,0,0,0,0,0,0,0,0,0,0,0,0,0,
0,0,0,20,0,0,0,0,0,0,0,0,0,16,12,0,18,0,0,0,0,0,0,0,0,0,0,0,0,0,
0,0,0,16,12,0,0,0,0,0,0,0,0,0,20,0,18,0,0,0,0,0,0,0,0,0,0,0,0,0,
0,0,0,0,20,0,0,0,0,0,0,0,0,0,20,10,15,0,0,0,0,0,0,0,0,0,0,0,0,0,
0,0,0,0,20,0,23,0,0,0,0,0,0,0,20,18,0,0,0,0,0,0,0,0,0,0,0,0,0,0,
0,0,0,0,20,0,18,0,0,0,0,0,0,24,28,18,0,0,0,0,0,0,0,0,0,0,0,0,0,0,
0,0,0,0,20,0,26,23,0,0,0,24,19,28,36,18,0,0,0,0,0,0,0,0,0,0,0,0,0,0,
0,0,0,0,16,12,34,18,0,0,0,20,0,36,10,15,0,0,0,0,0,0,0,0,0,0,0,0,0,0,
0,0,0,0,0,16,11,15,0,0,0,20,0,0,18,0,0,0,0,0,0,0,0,0,0,0,0,0,0,0,
0,0,0,0,0,0,0,0,0,0,0,16,11,11,15,0,0,0,0,0,0,0,0,0,0,0,0,0,0,0,
0,0,0,0,0,0,0,0,0,0,0,0,0,0,0,0,0,0,0,24,19,23,0,0,0,0,0,0,0,0,
0,0,0,0,0,0,0,0,0,0,0,0,0,0,0,0,0,0,24,28,0,18,0,0,0,0,0,0,0,0,
0,0,0,0,0,0,0,0,0,0,0,0,0,0,0,0,0,0,20,36,0,18,0,0,0,0,0,0,0,0,
0,0,0,0,0,0,0,0,0,0,0,0,0,0,0,0,0,0,16,11,11,15,0,0,0,0,0,0,0,0,
0,0,0,0,0,0,0,0,0,0,0,0,0,0,0,0,0,0,0,0,0,0,0,0,0,0,0,0,0,0,
0,0,0,0,0,0,0,0,0,0,0,0,0,0,0,0,0,0,0,0,0,0,0,0,0,0,0,0,0,0,
0,0,0,0,0,0,0,0,0,0,0,0,0,0,0,0,0,0,0,0,0,0,0,0,0,0,0,0,0,0,
0,0,0,0,0,0,0,0,0,0,0,0,0,0,0,0,0,0,0,0,0,0,0,0,0,0,0,0,0,0,
0,0,0,0,0,0,0,0,0,0,0,0,0,0,0,0,0,0,0,0,0,0,0,0,0,0,0,0,0,0,
0,0,0,0,0,0,0,0,0,0,0,0,0,0,0,0,0,0,0,0,0,0,0,0,0,0,0,0,0,0,
0,0,0,0,0,0,0,0,0,0,0,0,0,0,0,0,0,0,0,0,0,0,0,0,0,0,0,0,0,0,
0,0,0,0,0,0,0,0,0,0,0,0,0,0,0,0,0,0,0,0,0,0,0,0,0,0,0,0,0,0
</data>
 </layer>
 <objectgroup id="7" name="Objects">
  <object id="8" name="Spawn1" type="Spawn" x="320" y="288">
   <point/>
  </object>
 </objectgroup>
 <objectgroup id="12" name="Collisions" class="Collisions">
  <object id="5" x="203" y="104">
   <polygon points="24,0 261,0 261,24 295,24 295,72 363,72 363,176 329,176 329,272 295,272 295,320 183,320 183,240 251,240 251,216 285,216 285,128 251,128 251,104 217,104 217,80 23,80 23,104 -11,104 -11,192 23,192 23,240 57,240 57,296 -21,296 -21,272 -55,272 -55,152 -89,152 -89,24 -55,24 -55,0"/>
  </object>
  <object id="6" x="692" y="440">
   <polygon points="0,0 44,0 44,80 -68,80 -68,24 -34,24 -34,0 -16,0"/>
  </object>
 </objectgroup>
</map>
